!!!COM: Webern, Anton (Friedrich Wilhelm von)
!!!OTL: Fünf Stücke (Five Pieces) for Orchestra, op. 10
!!!OMV: Movement 1
!!!example: 408
!!!work: Web-13
!!!OMD-full: Sehr ruhig und zart
!!!OMD: Sehr ruhig und zart
**kern	**dynam	**kern	**dynam	**kern	**dynam	**kern	**dynam	**kern	**kern	**dynam	**kern	**kern	**dynam	**kern	**dynam	**kern	**dynam	**kern	**dynam	**kern	**dynam
*grp:A	*grp:A	*grp:A	*grp:A	*grp:A	*grp:A	*grp:B	*grp:B	*grp:A	*grp:A	*grp:A	*grp:A	*grp:A	*grp:A	*grp:B	*grp:B	*grp:A	*grp:A	*grp:A	*grp:A	*grp:B	*grp:B
*part10	*part10	*part9	*part9	*part8	*part8	*part7	*part7	*part6	*part6	*part6	*part5	*part5	*part5	*part4	*part4	*part3	*part3	*part2	*part2	*part1	*part1
*staff12	*	*staff11	*	*staff10	*	*staff9	*	*staff8	*staff7	*	*staff6	*staff5	*	*staff4	*	*staff3	*	*staff2	*	*staff1	*
*ICstr	*	*ICstr	*	*ICstr	*	*ICidio	*	*ICstr	*ICstr	*	*ICidio	*ICidio	*	*ICbras	*	*ICbras	*	*ICww	*	*ICww	*
*Icello	*	*Iviola	*	*Ivioln	*	*Iglock	*	*Iarpa	*Iarpa	*	*Iclest	*Iclest	*	*Itromt	*	*Itromp	*	*Iclars	*	*Iflt	*
*I"Violoncello	*	*I"Viola	*	*I"Violin	*	*I"Glockenspiel	*	*I"Harp	*	*	*I"Celesta	*	*	*I"Trombone	*	*I"Trumpet in Bb	*	*I"Clarinet in Bb	*	*I"Flute	*
*I'Vc.	*	*I'Vla.	*	*I'Vln.	*	*I'Glock.	*	*I'Hp.	*	*	*I'Cel.	*	*	*I'Tbn.	*	*I'Tpt.	*	*I'Cl.	*	*I'Fl.	*
*clefF4	*	*clefC3	*	*clefG2	*	*clefG2	*	*clefF4	*clefG2	*	*clefF4	*clefG2	*	*clefF4	*	*clefG2	*	*clefG2	*	*clefG2	*
*	*	*	*	*	*	*ITrd0c0	*	*	*	*	*ITrd0c0	*ITrd0c0	*	*	*	*I	*	*I	*	*	*
*k[]	*	*k[]	*	*k[]	*	*k[]	*	*k[]	*k[]	*	*k[]	*k[]	*	*k[]	*	*k[]	*	*k[b-e-]	*	*k[]	*
*M2/4	*	*M2/4	*	*M2/4	*	*M2/4	*	*M2/4	*M2/4	*	*M2/4	*M2/4	*	*M2/4	*	*M2/4	*	*M2/4	*	*M2/4	*
!	!	!	!	!LO:TX:t=[quarter]=50	!	!	!	!	!	!	!	!	!	!	!	!	!	!	!	!LO:TX:t=Sehr ruhig und zart ([quarter]= ca. 50)	!
8r	.	8r	.	8r	.	8r	.	8r	8b'	ppp	8r	8r	.	8r	.	8cc#X'	ppp	8r	.	8r	.
=1	=1	=1	=1	=1	=1	=1	=1	=1	=1	=1	=1	=1	=1	=1	=1	=1	=1	=1	=1	=1	=1
*	*	*	*	*	*	*	*	*	*grp:B	*grp:B	*	*	*	*	*	*	*	*	*	*	*
!	!	!	!	!	!	!LO:TX:a:i:t=dolcissimo	!	!	!	!	!	!	!	!	!	!	!	!	!	!LO:TX:a:t=Flatterz.	!
!	!	!LO:TX:t=P:problem:top notehead here should be a cue-sized notehead	!	!	!	!	!	!	!	!	!	!	!	!	!	!	!	!	!	!	!
2r	.	8Cnv 8Fno	pp	2r	.	2r	.	4cn~o	4r	.	2r	4An~	ppp	2r	.	2r	.	2r	.	4r	.
.	.	8r	.	.	.	.	.	.	.	.	.	.	.	.	.	.	.	.	.	.	.
.	.	4r	.	.	.	.	.	4r	12r	.	.	4r	.	.	.	.	.	.	.	12r	ppp
!	!	!	!	!	!	!	!	!	!	!	!	!	!	!	!	!	!	!	!	!LO:TX:t=P:problem: tremolo markings need to be added throughout (some notes command is not working)	!
.	.	.	.	.	.	.	.	.	6bn	pp	.	.	.	.	.	.	.	.	.	6bn@32@	<[
=2	=2	=2	=2	=2	=2	=2	=2	=2	=2	=2	=2	=2	=2	=2	=2	=2	=2	=2	=2	=2	=2
2r	.	2r	.	2r	.	6ee-X	pp >	2r	2r	.	2r	2r	.	2r	.	2r	.	2r	.	2r	.
.	.	.	.	.	.	6gn	.	.	.	.	.	.	.	.	.	.	.	.	.	.	.
.	.	.	.	.	.	6dn	]]	.	.	.	.	.	.	.	.	.	.	.	.	.	.
=3	=3	=3	=3	=3	=3	=3	=3	=3	=3	=3	=3	=3	=3	=3	=3	=3	=3	=3	=3	=3	=3
!	!	!	!	!	!	!	!	!	!	!	!	!	!	!	!	!	!	!LO:TX:a:i:t=dolcissimo	!	!	!
2r	.	2r	.	2r	.	2r	.	2r	2r	.	2G#X^TT	2r	pp	2r	.	2r	.	4r	.	2r	.
.	.	.	.	.	.	.	.	.	.	.	.	.	.	.	.	.	.	8r	.	.	.
.	.	.	.	.	.	.	.	.	.	.	.	.	.	.	.	.	.	([8ggn	ppp	.	.
=4	=4	=4	=4	=4	=4	=4	=4	=4	=4	=4	=4	=4	=4	=4	=4	=4	=4	=4	=4	=4	=4
*	*	*grp:B	*grp:B	*grp:B	*grp:B	*	*	*	*	*	*	*	*	*	*	*	*	*	*	*	*
!	!	!	!	!	!	!	!	!	!	!	!	!	!LO:HP:b	!	!	!	!	!	!	!	!
2r	.	4r	.	4r	.	2r	.	2r	4r	.	2G#XTTT	2r	<	2r	.	2r	.	8gg]	.	4r	.
.	.	.	.	.	.	.	.	.	.	.	.	.	.	.	.	.	.	[4.bbX	<	.	.
.	.	8r	.	8r	.	.	.	.	8r	.	.	.	.	.	.	.	.	.	.	12r	ppp
.	.	.	.	.	.	.	.	.	.	.	.	.	.	.	.	.	.	.	.	[6cc#X@32@	<[
.	.	[8dnv	pp <	[8Bnv	pp <	.	.	.	8Bn 8dn	ppp	.	.	[[	.	.	.	.	.	[[	.	.
=5	=5	=5	=5	=5	=5	=5	=5	=5	=5	=5	=5	=5	=5	=5	=5	=5	=5	=5	=5	=5	=5
2r	.	12d]	.	12B]	.	2r	.	2r	6r	.	2G#XTTT	2r	>	2r	.	2r	.	4bb]	.	12cc#]	.
.	.	12r	[	12r	[	.	.	.	.	.	.	.	.	.	.	.	.	.	.	12r	.
.	.	6.e-Xv	>	6.cnv	>	.	.	.	6cn 6e-X	pp	.	.	.	.	.	.	.	.	.	6.b-X	>
.	.	.	.	.	.	.	.	.	.	.	.	.	.	.	.	.	.	8ccc#XL	>	.	.
.	.	.	.	.	.	.	.	.	6r	.	.	.	.	.	.	.	.	.	.	.	.
.	.	.	.	.	.	.	.	.	.	.	.	.	]]	.	.	.	.	8ffJn)	]]	.	.
!	!	!	!	!LO:TX:a:i:t=zügernd tempo	!	!	!	!	!	!	!	!	!	!	!	!	!	!	!	!LO:TX:a:i:t=zügernd tempo	!
.	.	12r	]	12r	]	.	.	.	.	.	.	.	.	.	.	.	.	.	.	12r	.
*clefC4	*	*	*	*	*	*	*	*	*	*	*	*	*	*	*	*	*	*	*	*	*
=6	=6	=6	=6	=6	=6	=6	=6	=6	=6	=6	=6	=6	=6	=6	=6	=6	=6	=6	=6	=6	=6
*	*	*	*	*	*	*	*	*	*	*	*	*	*	*	*	*grp:B	*grp:B	*	*	*	*
16r	.	4d-Xv	pp >	4B-Xv	pp >	2r	.	2r	4B-X 4d-X	ppp	2G#XTTT	2r	<[[	4r	.	4r	.	8r	.	2r	]
!LO:TX:b:i:t=dolcissimo	!	!	!	!	!	!	!	!	!	!	!	!	!	!	!	!	!	!	!	!	!
!	!LO:TX:t=P:problem:dynamic clashing with crescendo throughout	!	!	!	!	!	!	!	!	!	!	!	!	!	!	!	!	!	!	!	!
8ccnv	pp <	.	.	.	.	.	.	.	.	.	.	.	.	.	.	.	.	.	.	.	.
.	.	.	.	.	.	.	.	.	.	.	.	.	.	.	.	.	.	(4ccc#X	ppp >	.	.
16r	[ >	.	.	.	.	.	.	.	.	.	.	.	.	.	.	.	.	.	.	.	.
16r	.	4r	]	4r	]	.	.	.	4r	.	.	.	.	12r	.	12r	.	.	.	.	.
8ddnv	] <	.	.	.	.	.	.	.	.	.	.	.	.	.	.	.	.	.	.	.	.
.	.	.	.	.	.	.	.	.	.	.	.	.	.	(6Gn	ppp <	(6fn	ppp <	.	.	.	.
.	.	.	.	.	.	.	.	.	.	.	.	.	.	.	.	.	.	8ggn)	.	.	.
16r	[ >	.	.	.	.	.	.	.	.	.	.	.	.	.	[[	.	[[	.	]]	.	.
=7	=7	=7	=7	=7	=7	=7	=7	=7	=7	=7	=7	=7	=7	=7	=7	=7	=7	=7	=7	=7	=7
*	*	*	*	*grp:A	*grp:A	*	*	*	*	*	*	*	*	*	*	*	*	*	*	*	*
!	!	!	!	!LO:TX:a:i:t=dolcissimo	!	!	!	!	!	!	!	!	!	!	!	!	!	!	!	!	!
8r	.	2r	.	4r	.	2r	.	2r	2r	.	2G#XTTT	2r	>]	6Fn	.	6a-X	.	2r	.	2r	.
(4cc#X	pp ] >	.	.	.	.	.	.	.	.	.	.	.	.	.	.	.	.	.	.	.	.
.	.	.	.	.	.	.	.	.	.	.	.	.	.	6F#X)	>	12g~L	>	.	.	.	.
.	.	.	.	[4bbb-X	p<[[	.	.	.	.	.	.	.	.	.	.	12a~J)	.	.	.	.	.
.	.	.	.	.	.	.	.	.	.	.	.	.	.	6r	]	6r	]	.	.	.	.
8Bn)	]	.	.	.	.	.	.	.	.	.	.	.	.	.	.	.	.	.	.	.	.
=8	=8	=8	=8	=8	=8	=8	=8	=8	=8	=8	=8	=8	=8	=8	=8	=8	=8	=8	=8	=8	=8
*	*	*	*	*grp:B	*grp:B	*	*	*	*	*	*	*	*	*	*	*	*	*	*	*grp:A	*grp:A
!	!	!	!	!	!	!	!	!	!	!	!	!LO:TX:b:i:t=verklingend	!	!	!	!	!	!	!	!	!
(4.an	ppp <	2r	.	12bbb-L]	]	2r	.	2r	2r	.	4G#XTTT	2r	.	2r	.	2r	.	2r	.	8r	.
.	[[	.	.	(12ddn	<	.	.	.	.	.	.	.	.	.	.	.	.	.	.	.	.
*	*	*	*	*	*	*	*	*	*	*	*	*	*	*	*	*	*	*	*	*tremolo	*
!	!	!	!	!	!	!	!	!	!	!	!	!	!	!	!	!	!	!	!	!LO:TX:a:t=Flatterz.	!
.	.	.	.	.	.	.	.	.	.	.	.	.	.	.	.	.	.	.	.	8g#X	ppp <
.	.	.	.	12ccc#XJ	.	.	.	.	.	.	.	.	.	.	.	.	.	.	.	.	.
.	.	.	.	6fffn	[ >	.	.	.	.	.	4r	.	.	.	.	.	.	.	.	32enLLL	.
.	.	.	.	.	.	.	.	.	.	.	.	.	.	.	.	.	.	.	.	32en	.
.	.	.	.	.	.	.	.	.	.	.	.	.	.	.	.	.	.	.	.	32en	.
.	.	.	.	.	.	.	.	.	.	.	.	.	.	.	.	.	.	.	.	32en	.
8ccn)	] >]]	.	.	.	.	.	.	.	.	.	.	.	.	.	.	.	.	.	.	32fn	[
.	.	.	.	.	.	.	.	.	.	.	.	.	.	.	.	.	.	.	.	32fn	.
.	.	.	.	12ff#X)	]	.	.	.	.	.	.	.	.	.	.	.	.	.	.	.	.
.	.	.	.	.	.	.	.	.	.	.	.	.	.	.	.	.	.	.	.	32fn	.
.	.	.	.	.	.	.	.	.	.	.	.	.	.	.	.	.	.	.	.	32fnJJJ	.
*	*	*	*	*	*	*	*	*	*	*	*	*	*	*	*	*	*	*	*	*Xtremolo	*
=9	=9	=9	=9	=9	=9	=9	=9	=9	=9	=9	=9	=9	=9	=9	=9	=9	=9	=9	=9	=9	=9
*	*	*	*	*grp:A	*grp:A	*grp:A	*grp:A	*	*grp:A	*grp:A	*	*	*	*	*	*grp:A	*grp:A	*	*	*grp:B	*grp:B
2r	.	2r	.	8r	.	8r	.	2r	4r	ppp	2r	2r	.	2r	.	4r	.	2r	.	12en@32@L	>
.	.	.	.	.	.	.	.	.	.	.	.	.	.	.	.	.	.	.	.	12dd#X@32@J	.
.	.	.	.	[4.gggn	pp >	4ggn~	ppp	.	.	.	.	.	.	.	.	.	.	.	.	.	.
.	.	.	.	.	]]	.	.	.	.	.	.	.	.	.	.	.	.	.	.	12r	]
!	!	!	!	!	!	!	!	!	!	!	!	!	!	!	!	!LO:TX:a:i:t=espr.	!	!	!	!LO:TX:a:i:t=zügernd tempo	!
.	.	.	.	.	.	.	.	.	16r	.	.	.	.	.	.	16r	.	.	.	4r	.
.	.	.	.	.	.	.	.	.	16an'^LL	<	.	.	.	.	.	8bnX	ppp	.	.	.	.
.	.	.	.	.	.	8r	.	.	16a'JJ	.	.	.	.	.	.	.	.	.	.	.	.
.	.	.	.	.	.	.	.	.	16r	[	.	.	.	.	.	16r	<[	.	.	.	.
*clefF4	*	*	*	*	*	*	*	*	*	*	*	*	*	*	*	*	*	*	*	*	*
=10	=10	=10	=10	=10	=10	=10	=10	=10	=10	=10	=10	=10	=10	=10	=10	=10	=10	=10	=10	=10	=10
*^	*	*	*	*	*	*	*	*	*	*	*	*	*	*	*	*	*	*	*	*	*
*	*	*	*	*	*	*	*	*	*grp:B	*	*	*	*	*	*	*	*	*	*	*	*	*
!	!	!	!	!	!LO:TX:a:i:t=zügernd tempo	!	!	!	!	!	!	!	!	!	!	!	!	!	!	!	!	!
!	!	!LO:TX:t=P:problem: this top pitch should be a cue-sized notehead	!	!	!	!	!	!	!	!	!	!	!	!	!	!	!	!	!	!	!	!
4.GG#X 4.C#X	2G	pp <	2r	.	4ggg]	ppp >	2r	.	6r	2r	.	4.G#X^	2r	pp	2r	.	2r	.	2r	.	2r	.
.	.	.	.	.	.	.	.	.	12r	.	.	.	.	.	.	.	.	.	.	.	.	.
.	.	[	.	.	4r	]	.	.	12DnLo	.	< pp	.	.	.	.	.	.	.	.	.	.	.
.	.	.	.	.	.	.	.	.	12eno	.	.	.	.	.	.	.	.	.	.	.	.	.
8r	.	]>]>]	.	.	.	.	.	.	.	.	.	8r	.	.	.	.	.	.	.	.	.	.
.	.	.	.	.	.	.	.	.	12B-XJo	.	[	.	.	.	.	.	.	.	.	.	.	.
*v	*v	*	*	*	*	*	*	*	*	*	*	*	*	*	*	*	*	*	*	*	*	*
=11	=11	=11	=11	=11	=11	=11	=11	=11	=11	=11	=11	=11	=11	=11	=11	=11	=11	=11	=11	=11	=11
*	*	*	*	*	*	*	*	*grp:A	*	*	*	*	*	*	*	*	*	*	*	*	*
!	!	!	!	!	!	!	!	!	!	!	!	!	!	!	!	!	!	!	!	!LO:TX:a:t=rit.	!
2r	.	2r	.	2r	.	2r	.	8B-XLo	2r	.	2r	2r	.	2r	.	2r	.	2r	.	2r	.
.	.	.	.	.	.	.	.	8AnJo	.	>	.	.	.	.	.	.	.	.	.	.	.
.	.	.	.	.	.	.	.	8BnLo	.	.	.	.	.	.	.	.	.	.	.	.	.
.	.	.	.	.	.	.	.	8E-XJo	.	]	.	.	.	.	.	.	.	.	.	.	.
=12	=12	=12	=12	=12	=12	=12	=12	=12	=12	=12	=12	=12	=12	=12	=12	=12	=12	=12	=12	=12	=12
*	*	*	*	*	*	*	*	*	*	*	*	*	*	*	*	*	*	*	*	*grp:A	*grp:A
2r	.	2r	.	2r	.	2r	.	2r	2r	.	4r	2r	.	2r	.	8r	ppp	2r	.	16r	ppp
.	.	.	.	.	.	.	.	.	.	.	.	.	.	.	.	.	.	.	.	16fn'LL	>
.	.	.	.	.	.	.	.	.	.	.	.	.	.	.	.	16g'LLn	>	.	.	16f'JJ	.
.	.	.	.	.	.	.	.	.	.	.	.	.	.	.	.	16g'JJ	]	.	.	16r	]
.	.	.	.	.	.	.	.	.	.	.	16r	.	.	.	.	4r	.	.	.	4r	.
.	.	.	.	.	.	.	.	.	.	.	16Fn'	.	ppp	.	.	.	.	.	.	.	.
.	.	.	.	.	.	.	.	.	.	.	8r	.	.	.	.	.	.	.	.	.	.
==	==	==	==	==	==	==	==	==	==	==	==	==	==	==	==	==	==	==	==	==	==
*-	*-	*-	*-	*-	*-	*-	*-	*-	*-	*-	*-	*-	*-	*-	*-	*-	*-	*-	*-	*-	*-
!!!system-decoration: [(s1,s2)][(s3,s4)][({(s5,s6)})][({(s7,s8)})][(s9)][(s10,s11,s12)]
!!!CDT: 1883/12/03-1945/09/15
!!!CBL: Vienna, Austria
!!!CDL: Mittersill, Austria
!!!CNT: Austrian
!!!AGN: Orchestral; Symphonic
!!!MCN: Webern, Anton
!!!MDT: 1924/06/22
!!!MGN: unknown
!!!MLC: Zürich, Switzerland
!!!MPD: 1924
!!!MPN:
!!!ODT: 1913
!!!PDT: 1923
!!!excerpt-start-measure: 0.75
!!!excerpt-end-measure: 12
!!!excerpt-start-time: 0:00
!!!excerpt-end-time: 0:58
!!!excerpt-duration-sec: 58
!!!excerpt-time-signature: 2/4
!!!excerpt-tempo-beat: quarter
!!!excerpt-tempo-rate: 50
!!!excerpt-meter-type: duple
!!!excerpt-beat-group: G2
!!!excerpt-beat-subgroup: G2
!!!experiment: 1
!!!EEV: 2020/07/28
!!!ONB: Converted from MusicXML on 2020/07/28
